branches/nugui/src/gui/icons/edit_copy.svg

<?xml version="1.0" encoding="UTF-8" standalone="no"?>
<!-- Created with Inkscape (http://www.inkscape.org/) -->

<svg
   xmlns:dc="http://purl.org/dc/elements/1.1/"
   xmlns:cc="http://creativecommons.org/ns#"
   xmlns:rdf="http://www.w3.org/1999/02/22-rdf-syntax-ns#"
   xmlns:svg="http://www.w3.org/2000/svg"
   xmlns="http://www.w3.org/2000/svg"
   xmlns:xlink="http://www.w3.org/1999/xlink"
   xmlns:inkscape="http://www.inkscape.org/namespaces/inkscape"
   version="1.0"
   width="100"
   height="100"
   id="svg2">
  <defs
     id="defs4">
    <linearGradient
       id="linearGradient4454">
      <stop
         id="stop4456"
         style="stop-color:#e8ede5;stop-opacity:1"
         offset="0" />
      <stop
         id="stop4458"
         style="stop-color:#f2f8ff;stop-opacity:1"
         offset="1" />
    </linearGradient>
    <linearGradient
       id="linearGradient3186">
      <stop
         id="stop3188"
         style="stop-color:#aaaaaa;stop-opacity:1"
         offset="0" />
      <stop
         id="stop3190"
         style="stop-color:#fffffd;stop-opacity:0.50196081"
         offset="1" />
    </linearGradient>
    <linearGradient
       x1="18.799059"
       y1="7.9464054"
       x2="78.915184"
       y2="89.205368"
       id="linearGradient3400"
       xlink:href="#linearGradient3186"
       gradientUnits="userSpaceOnUse" />
    <linearGradient
       x1="18.799059"
       y1="7.9464054"
       x2="78.915184"
       y2="89.205368"
       id="linearGradient3402"
       xlink:href="#linearGradient3186"
       gradientUnits="userSpaceOnUse" />
    <linearGradient
       x1="18.799059"
       y1="7.9464054"
       x2="78.915184"
       y2="89.205368"
       id="linearGradient3404"
       xlink:href="#linearGradient3186"
       gradientUnits="userSpaceOnUse" />
    <linearGradient
       x1="94.145203"
       y1="69.538887"
       x2="154.36485"
       y2="69.538887"
       id="linearGradient4460"
       xlink:href="#linearGradient4454"
       gradientUnits="userSpaceOnUse" />
    <linearGradient
       x1="94.145203"
       y1="69.538887"
       x2="154.36485"
       y2="69.538887"
       id="linearGradient3341"
       xlink:href="#linearGradient4454"
       gradientUnits="userSpaceOnUse" />
    <linearGradient
       x1="94.145203"
       y1="69.538887"
       x2="154.36485"
       y2="69.538887"
       id="linearGradient3343"
       xlink:href="#linearGradient4454"
       gradientUnits="userSpaceOnUse" />
  </defs>
  <metadata
     id="metadata7">
    <rdf:RDF>
      <cc:Work
         rdf:about="">
        <dc:format>image/svg+xml</dc:format>
        <dc:type
           rdf:resource="http://purl.org/dc/dcmitype/StillImage" />
      </cc:Work>
    </rdf:RDF>
  </metadata>
  <g
     id="layer1">
    <path
       d="m 11.357619,88.469575 35.608342,0 18.528154,-20.8869 0,-62.4346641 -54.136496,0 0,83.3215641"
       inkscape:connector-curvature="0"
       id="path3426"
       style="fill:#282828;fill-opacity:1;stroke:none" />
    <use
       transform="translate(31.002328,10.530149)"
       id="use2530"
       style="fill:#282828;fill-opacity:1"
       x="0"
       y="0"
       width="100"
       height="100"
       xlink:href="#path3426" />
    <g
       transform="matrix(0.9141645,0,0,1.035103,-8.69114,-6.8544259)"
       id="g4235"
       style="fill:#ffffff;fill-opacity:1">
      <path
         d="m 19.163479,88.735485 38.951801,0 20.267857,-20.178571 0,-60.3173472 -59.219658,0 0,80.4959182"
         inkscape:connector-curvature="0"
         id="path4237"
         style="fill:#ffffff;fill-opacity:1;stroke:#000000;stroke-opacity:1" />
      <path
         d="m 58.639205,69.080838 18.940361,0 -18.940361,18.940361 0,-18.940361 z"
         inkscape:connector-curvature="0"
         id="path4239"
         style="fill:#ffffff;fill-opacity:1;stroke:#000000;stroke-opacity:1" />
    </g>
    <g
       transform="matrix(0.9141645,0,0,1.035103,-77.693847,-28.644754)"
       id="g4241"
       style="fill:url(#linearGradient4460);fill-opacity:1;stroke:#929293;stroke-opacity:1">
      <path
         d="m 94.645199,109.78685 38.951801,0 20.26786,-20.178572 0,-60.317348 -59.219661,0 0,80.49592"
         inkscape:connector-curvature="0"
         id="path4243"
         style="fill:url(#linearGradient3341);fill-opacity:1;stroke:#929293;stroke-opacity:1" />
      <path
         d="m 134.12092,90.132202 18.94037,0 -18.94037,18.940358 0,-18.940358 z"
         inkscape:connector-curvature="0"
         id="path4245"
         style="fill:url(#linearGradient3343);fill-opacity:1;stroke:#929293;stroke-opacity:1" />
    </g>
    <g
       transform="matrix(1.1271558,0,0,1.1271558,0.1689023,-1.687955)"
       id="g3457">
      <g
         transform="matrix(0.8110364,0,0,0.9183317,19.626731,5.2433375)"
         id="g4218"
         style="fill:#ffffff;fill-opacity:1">
        <path
           d="m 19.163479,88.735485 38.951801,0 20.267857,-20.178571 0,-60.3173472 -59.219658,0 0,80.4959182"
           inkscape:connector-curvature="0"
           id="path4220"
           style="fill:#ffffff;fill-opacity:1;stroke:#000000;stroke-opacity:1" />
        <path
           d="m 58.639205,69.080838 18.940361,0 -18.940361,18.940361 0,-18.940361 z"
           inkscape:connector-curvature="0"
           id="path4222"
           style="fill:#ffffff;fill-opacity:1;stroke:#000000;stroke-opacity:1" />
      </g>
      <g
         transform="matrix(0.8110364,0,0,0.9183317,19.626731,5.2433375)"
         id="g2163"
         style="fill:url(#linearGradient3400);fill-opacity:1">
        <path
           d="m 19.163479,88.735485 38.951801,0 20.267857,-20.178571 0,-60.3173472 -59.219658,0 0,80.4959182"
           inkscape:connector-curvature="0"
           id="path4225"
           style="fill:url(#linearGradient3402);fill-opacity:1;stroke:#000000;stroke-opacity:1" />
        <path
           d="m 58.639205,69.080838 18.940361,0 -18.940361,18.940361 0,-18.940361 z"
           inkscape:connector-curvature="0"
           id="path4227"
           style="fill:url(#linearGradient3404);fill-opacity:1;stroke:#000000;stroke-opacity:1" />
      </g>
    </g>
  </g>
</svg>

<?xml version="1.0" encoding="UTF-8" standalone="no"?>
<!-- Created with Inkscape (http://www.inkscape.org/) -->
<svg
   xmlns:dc="http://purl.org/dc/elements/1.1/"
   xmlns:cc="http://web.resource.org/cc/"
   xmlns:rdf="http://www.w3.org/1999/02/22-rdf-syntax-ns#"
   xmlns:svg="http://www.w3.org/2000/svg"
   xmlns="http://www.w3.org/2000/svg"
   xmlns:xlink="http://www.w3.org/1999/xlink"
   xmlns:sodipodi="http://sodipodi.sourceforge.net/DTD/sodipodi-0.dtd"
   xmlns:inkscape="http://www.inkscape.org/namespaces/inkscape"
   width="100"
   height="100"
   id="svg2"
   sodipodi:version="0.32"
   inkscape:version="0.45.1"
   version="1.0"
   sodipodi:docbase="/home/tris/src/aten/src/gui-qt/icons"
   sodipodi:docname="edit_copy.svg"
   inkscape:output_extension="org.inkscape.output.svg.inkscape">
  <defs
     id="defs4">
    <linearGradient
       id="linearGradient4454">
      <stop
         style="stop-color:#e8ede5;stop-opacity:1;"
         offset="0"
         id="stop4456" />
      <stop
         style="stop-color:#f2f8ff;stop-opacity:1;"
         offset="1"
         id="stop4458" />
    </linearGradient>
    <linearGradient
       id="linearGradient3186">
      <stop
         style="stop-color:#aaaaaa;stop-opacity:1;"
         offset="0"
         id="stop3188" />
      <stop
         style="stop-color:#fffffd;stop-opacity:0.50196081;"
         offset="1"
         id="stop3190" />
    </linearGradient>
    <linearGradient
       inkscape:collect="always"
       xlink:href="#linearGradient3186"
       id="linearGradient3400"
       gradientUnits="userSpaceOnUse"
       x1="18.799059"
       y1="7.9464054"
       x2="78.915184"
       y2="89.205368" />
    <linearGradient
       inkscape:collect="always"
       xlink:href="#linearGradient3186"
       id="linearGradient3402"
       gradientUnits="userSpaceOnUse"
       x1="18.799059"
       y1="7.9464054"
       x2="78.915184"
       y2="89.205368" />
    <linearGradient
       inkscape:collect="always"
       xlink:href="#linearGradient3186"
       id="linearGradient3404"
       gradientUnits="userSpaceOnUse"
       x1="18.799059"
       y1="7.9464054"
       x2="78.915184"
       y2="89.205368" />
    <linearGradient
       inkscape:collect="always"
       xlink:href="#linearGradient4454"
       id="linearGradient4460"
       x1="94.145199"
       y1="69.53889"
       x2="154.36486"
       y2="69.53889"
       gradientUnits="userSpaceOnUse" />
    <linearGradient
       inkscape:collect="always"
       xlink:href="#linearGradient4454"
       id="linearGradient3341"
       gradientUnits="userSpaceOnUse"
       x1="94.145199"
       y1="69.53889"
       x2="154.36486"
       y2="69.53889" />
    <linearGradient
       inkscape:collect="always"
       xlink:href="#linearGradient4454"
       id="linearGradient3343"
       gradientUnits="userSpaceOnUse"
       x1="94.145199"
       y1="69.53889"
       x2="154.36486"
       y2="69.53889" />
  </defs>
  <sodipodi:namedview
     id="base"
     pagecolor="#ffffff"
     bordercolor="#666666"
     borderopacity="1.0"
     gridtolerance="10000"
     guidetolerance="10"
     objecttolerance="10"
     inkscape:pageopacity="0.0"
     inkscape:pageshadow="2"
     inkscape:zoom="3.6669919"
     inkscape:cx="96.72147"
     inkscape:cy="52.74308"
     inkscape:document-units="px"
     inkscape:current-layer="layer1"
     width="100px"
     height="100px"
     inkscape:window-width="1024"
     inkscape:window-height="714"
     inkscape:window-x="0"
     inkscape:window-y="29" />
  <metadata
     id="metadata7">
    <rdf:RDF>
      <cc:Work
         rdf:about="">
        <dc:format>image/svg+xml</dc:format>
        <dc:type
           rdf:resource="http://purl.org/dc/dcmitype/StillImage" />
      </cc:Work>
    </rdf:RDF>
  </metadata>
  <g
     inkscape:label="Layer 1"
     inkscape:groupmode="layer"
     id="layer1">
    <path
       style="fill:#282828;fill-opacity:1;stroke:none;stroke-width:0.86301821;stroke-opacity:1"
       d="M 11.357619,88.469575 L 46.965961,88.469575 L 65.494115,67.582675 L 65.494115,5.1480109 L 11.357619,5.1480109 L 11.357619,88.469575"
       id="path3426"
       sodipodi:nodetypes="cccccc" />
    <use
       x="0"
       y="0"
       xlink:href="#path3426"
       id="use2530"
       transform="translate(31.002328,10.530149)"
       width="100"
       height="100"
       style="fill:#282828;fill-opacity:1" />
    <g
       id="g4235"
       transform="matrix(0.9141645,0,0,1.035103,-8.69114,-6.8544259)"
       style="fill:#ffffff;fill-opacity:1">
      <path
         sodipodi:nodetypes="cccccc"
         id="path4237"
         d="M 19.163479,88.735485 L 58.11528,88.735485 L 78.383137,68.556914 L 78.383137,8.2395668 L 19.163479,8.2395668 L 19.163479,88.735485"
         style="fill:#ffffff;fill-opacity:1;stroke:#000000;stroke-opacity:1" />
      <path
         sodipodi:nodetypes="cccc"
         id="path4239"
         d="M 58.639205,69.080838 L 77.579566,69.080838 L 58.639205,88.021199 L 58.639205,69.080838 z "
         style="fill:#ffffff;fill-opacity:1;stroke:#000000;stroke-opacity:1" />
    </g>
    <g
       id="g4241"
       transform="matrix(0.9141645,0,0,1.035103,-77.693847,-28.644754)"
       style="fill:url(#linearGradient4460);fill-opacity:1;stroke:#929293;stroke-opacity:1">
      <path
         sodipodi:nodetypes="cccccc"
         id="path4243"
         d="M 94.645199,109.78685 L 133.597,109.78685 L 153.86486,89.608278 L 153.86486,29.29093 L 94.645199,29.29093 L 94.645199,109.78685"
         style="fill:url(#linearGradient3341);fill-opacity:1;stroke:#929293;stroke-opacity:1" />
      <path
         sodipodi:nodetypes="cccc"
         id="path4245"
         d="M 134.12092,90.132202 L 153.06129,90.132202 L 134.12092,109.07256 L 134.12092,90.132202 z "
         style="fill:url(#linearGradient3343);fill-opacity:1;stroke:#929293;stroke-opacity:1" />
    </g>
    <g
       id="g3457"
       transform="matrix(1.1271558,0,0,1.1271558,0.1689023,-1.687955)">
      <g
         style="fill:#ffffff;fill-opacity:1"
         transform="matrix(0.8110364,0,0,0.9183317,19.626731,5.2433375)"
         id="g4218">
        <path
           style="fill:#ffffff;fill-opacity:1;stroke:#000000;stroke-opacity:1"
           d="M 19.163479,88.735485 L 58.11528,88.735485 L 78.383137,68.556914 L 78.383137,8.2395668 L 19.163479,8.2395668 L 19.163479,88.735485"
           id="path4220"
           sodipodi:nodetypes="cccccc" />
        <path
           style="fill:#ffffff;fill-opacity:1;stroke:#000000;stroke-opacity:1"
           d="M 58.639205,69.080838 L 77.579566,69.080838 L 58.639205,88.021199 L 58.639205,69.080838 z "
           id="path4222"
           sodipodi:nodetypes="cccc" />
      </g>
      <g
         style="fill:url(#linearGradient3400);fill-opacity:1"
         transform="matrix(0.8110364,0,0,0.9183317,19.626731,5.2433375)"
         id="g2163">
        <path
           style="fill:url(#linearGradient3402);fill-opacity:1;stroke:#000000;stroke-opacity:1"
           d="M 19.163479,88.735485 L 58.11528,88.735485 L 78.383137,68.556914 L 78.383137,8.2395668 L 19.163479,8.2395668 L 19.163479,88.735485"
           id="path4225"
           sodipodi:nodetypes="cccccc" />
        <path
           style="fill:url(#linearGradient3404);fill-opacity:1;stroke:#000000;stroke-opacity:1"
           d="M 58.639205,69.080838 L 77.579566,69.080838 L 58.639205,88.021199 L 58.639205,69.080838 z "
           id="path4227"
           sodipodi:nodetypes="cccc" />
      </g>
    </g>
  </g>
</svg>
